%
(Header)
(Generated by gcodetools from Inkscape.)
(Using default header. To add your own header create file "header" in the output dir.)
G61
(Header end.)
G21 (All units in mm)
M08

(Start cutting path id: path839)
(Change tool to Cylindrical cutter)

M05
G01 F300 X8.113236 Y-18.743361

M03 S6000
G01 X8.113236 Y-29.011551 Z0.000000 F200.000000
G02 X8.615794 Y-28.900144 Z0.000000 I0.551482 J-1.298519
G02 X9.089089 Y-29.034372 Z0.000000 I0.027873 J-0.803266
G03 X10.098454 Y-29.135930 Z0.000000 I0.600408 J0.900612
G03 X12.831670 Y-25.826807 Z0.000000 I-1.713255 J4.198417
G03 X13.092777 Y-23.891586 Z0.000000 I-15.139617 J3.027923
G02 X13.247150 Y-23.877275 Z0.000000 I0.078365 J-0.005560
G01 X13.247150 Y-18.743361 Z0.000000
G01 X13.247150 Y-13.609085 Z0.000000
G02 X13.093290 Y-13.594987 Z0.000000 I-0.075772 J0.019681
G03 X12.831670 Y-11.659915 Z0.000000 I-15.465499 J-1.105704
G03 X10.098288 Y-8.350742 Z0.000000 I-4.446434 J-0.889287
G03 X9.089089 Y-8.451988 Z0.000000 I-0.409092 J-1.002628
G02 X8.615741 Y-8.586477 Z0.000000 I-0.445752 J0.668627
G02 X8.113236 Y-8.475171 Z0.000000 I0.048397 J1.408459
G01 X8.113236 Y-18.743361 Z0.000000
M05

(End cutting path id: path839)


(Start cutting path id: path835)
(Change tool to Cylindrical cutter)

M05
G01 F300 X0.000000 Y-14.270666

M03 S6000
G03 X0.758494 Y-14.436184 Z0.000000 I1.150473 J3.451420 F200.000000
G03 X1.470300 Y-14.404330 Z0.000000 I0.252392 J2.328920
G03 X1.993670 Y-14.154060 Z0.000000 I-0.231155 J1.155776
G03 X3.074263 Y-12.666703 Z0.000000 I-2.399190 J2.879271
G03 X3.677378 Y-11.097927 Z0.000000 I-57.896306 J23.158523
G01 X3.608917 Y-11.063102 Z0.000000
G01 X5.480208 Y-6.919168 Z0.000000
G03 X5.957494 Y-6.413324 Z0.000000 I-8.468444 J8.468444
G03 X6.683180 Y-5.582532 Z0.000000 I-44.080862 J39.236406
G02 X17.946123 Y-4.228177 Z0.000000 I115.723258 J-914.856204
G02 X21.252875 Y-4.143384 Z0.000000 I2.134529 J-18.721736
G02 X22.840671 Y-5.264991 Z0.000000 I-0.115513 J-1.848206
G02 X22.856838 Y-6.683355 Z0.000000 I-1.708343 J-0.728747
G02 X21.196795 Y-9.151191 Z0.000000 I-6.575542 J2.630930
G03 X17.510294 Y-14.168517 Z0.000000 I12.769003 J-13.245077
G03 X16.593453 Y-17.726102 Z0.000000 I7.824957 J-3.913539
G02 X16.440985 Y-21.087510 Z0.000000 I-362.983436 J14.780141
G03 X17.125390 Y-24.776889 Z0.000000 I8.102406 J-0.405120
G03 X20.049903 Y-28.572671 Z0.000000 I9.228879 J4.086010
G03 X23.567415 Y-30.445608 Z0.000000 I6.747803 J8.433325
G03 X25.129119 Y-30.845315 Z0.000000 I4.536202 J14.472781
G03 X26.505912 Y-31.012326 Z0.000000 I1.775258 J8.876291
G03 X27.936055 Y-30.978978 Z0.000000 I0.467867 J10.618386
G03 X30.352626 Y-30.918468 Z0.000000 I0.944322 J10.572054
G03 X31.411309 Y-29.807158 Z0.000000 I-0.171311 J1.223128
G03 X30.903302 Y-28.610370 Z0.000000 I-1.370264 J0.124569
G03 X29.540018 Y-27.771052 Z0.000000 I-4.009822 J-4.986224
G03 X27.601609 Y-26.934608 Z0.000000 I-22.686244 J-49.909736
G03 X25.530110 Y-26.167089 Z0.000000 I-12.561104 J-30.722629
G02 X24.301718 Y-25.328125 Z0.000000 I0.859813 J2.577694
G02 X23.525156 Y-23.894445 Z0.000000 I3.186245 J2.653005
G03 X23.058190 Y-22.421820 Z0.000000 I-86.159763 J-26.510696
G02 X22.723175 Y-20.316680 Z0.000000 I6.446530 J2.105140
G02 X24.213268 Y-16.895390 Z0.000000 I4.672729 J0.000000
G02 X30.609327 Y-11.463730 Z0.000000 I63.195518 J-67.934308
G02 X37.782060 Y-8.660343 Z0.000000 I8.350093 J-10.786754
G03 X43.842024 Y-6.950320 Z0.000000 I-1.449240 J16.728430
G02 X52.531319 Y-3.802688 Z0.000000 I17.838409 J-35.676818
G02 X55.471119 Y-3.608730 Z0.000000 I2.050339 J-8.700655
G03 X56.611997 Y-3.679175 Z0.000000 I1.490374 J14.863459
G02 X57.158577 Y-3.943025 Z0.000000 I-0.017169 J-0.733627
G02 X57.196753 Y-4.340641 Z0.000000 I-0.272131 J-0.226769
G02 X55.738084 Y-6.282002 Z0.000000 I-7.563537 J4.164295
G03 X51.961789 Y-13.298778 Z0.000000 I9.797243 J-9.797243
G02 X51.193884 Y-16.676973 Z0.000000 I-79.064214 J16.195882
G03 X51.517778 Y-19.296439 Z0.000000 I3.558305 J-0.889777
G03 X54.802439 Y-22.290844 Z0.000000 I5.868000 J3.138072
G03 X57.412253 Y-22.918974 Z0.000000 I3.223171 J7.656122
G03 X59.882018 Y-22.691835 Z0.000000 I0.555415 J7.501669
G03 X61.039066 Y-22.427192 Z0.000000 I0.044250 J2.468229
G03 X61.753308 Y-21.386351 Z0.000000 I-0.591561 J1.171422
G03 X60.336913 Y-19.968614 Z0.000000 I-1.288742 J0.128874
G02 X56.273101 Y-19.082556 Z0.000000 I-0.664863 J6.712827
G02 X55.537398 Y-17.046263 Z0.000000 I0.850745 J1.458419
G02 X57.342410 Y-12.163563 Z0.000000 I512.094330 J-186.533414
G02 X62.688983 Y-7.116785 Z0.000000 I7.824546 J-2.933874
G03 X68.703816 Y-4.544375 Z0.000000 I-9.426458 J30.359202
G03 X71.255426 Y-2.705811 Z0.000000 I-6.526103 J11.746985
G03 X72.446034 Y0.000187 Z0.000000 I-2.478697 J2.705525
G03 X71.255404 Y2.705959 Z0.000000 I-3.669823 J-0.000000
G03 X68.703453 Y4.544750 Z0.000000 I-9.074887 J-9.904263
G03 X62.688504 Y7.116922 Z0.000000 I-15.449274 J-27.808693
G02 X57.342047 Y12.163575 Z0.000000 I2.478369 J7.980963
G02 X55.537058 Y17.046510 Z0.000000 I518.957139 J194.608927
G02 X56.272739 Y19.082930 Z0.000000 I1.586439 J0.577977
G02 X60.336241 Y19.968798 Z0.000000 I3.398366 J-5.825770
G03 X61.752946 Y21.386726 Z0.000000 I0.127749 J1.289067
G03 X61.038756 Y22.427288 Z0.000000 I-1.305378 J-0.130573
G03 X59.881656 Y22.691848 Z0.000000 I-1.112835 J-2.204513
G03 X57.411990 Y22.918985 Z0.000000 I-1.914309 J-7.274374
G03 X54.802439 Y22.290857 Z0.000000 I0.613140 J-8.282019
G03 X51.517563 Y19.296839 Z0.000000 I2.581675 J-6.131479
G03 X51.193522 Y16.676986 Z0.000000 I3.234998 J-1.730093
G02 X51.961547 Y13.298905 Z0.000000 I-78.445614 J-19.611403
G03 X55.738084 Y6.282377 Z0.000000 I13.575003 J2.781938
G02 X57.196476 Y4.340966 Z0.000000 I-6.103267 J-6.103267
G02 X57.158260 Y3.943264 Z0.000000 I-0.310430 J-0.170858
G02 X56.611597 Y3.679384 Z0.000000 I-0.563822 J0.469852
G03 X55.470757 Y3.609105 Z0.000000 I0.350394 J-14.982626
G02 X52.531048 Y3.803081 Z0.000000 I-0.889391 J8.893908
G02 X43.842024 Y6.950695 Z0.000000 I9.150127 J38.825917
G03 X37.782050 Y8.660459 Z0.000000 I-7.507558 J-15.015116
G02 X30.608965 Y11.464105 Z0.000000 I1.175958 J13.586609
G02 X24.213093 Y16.895458 Z0.000000 I56.813917 J73.384643
G02 X22.722812 Y20.317055 Z0.000000 I3.182751 J3.421597
G02 X23.057828 Y22.422195 Z0.000000 I6.781546 J0.000000
G03 X23.524794 Y23.894820 Z0.000000 I-85.692798 J27.983322
G02 X24.301382 Y25.328410 Z0.000000 I3.961854 J-1.219032
G02 X25.529748 Y26.167101 Z0.000000 I2.087369 J-1.738316
G03 X27.601280 Y26.934752 Z0.000000 I-10.544707 J31.634122
G03 X29.539656 Y27.771064 Z0.000000 I-20.687061 J50.612272
G03 X30.902858 Y28.610548 Z0.000000 I-2.649638 J5.829203
G03 X31.410946 Y29.807533 Z0.000000 I-0.862463 J1.072420
G03 X30.352232 Y30.918749 Z0.000000 I-1.229869 J-0.111806
G03 X27.935693 Y30.978991 Z0.000000 I-1.471068 J-10.511841
G03 X26.505550 Y31.012338 Z0.000000 I-0.962276 J-10.585039
G03 X25.128757 Y30.845327 Z0.000000 I0.398465 J-9.043301
G03 X23.567041 Y30.445823 Z0.000000 I2.962897 J-14.834585
G03 X20.049540 Y28.573046 Z0.000000 I3.231204 J-10.308657
G03 X17.125042 Y24.777064 Z0.000000 I6.306628 J-7.883285
G03 X16.440623 Y21.087884 Z0.000000 I7.417109 J-3.284103
G02 X16.593176 Y17.726252 Z0.000000 I-364.616140 J-18.230807
G03 X17.509932 Y14.168529 Z0.000000 I8.745164 J0.356482
G03 X21.196255 Y9.151626 Z0.000000 I16.452684 J8.226342
G02 X22.856476 Y6.683367 Z0.000000 I-4.914606 J-5.098190
G02 X22.840356 Y5.265360 Z0.000000 I-1.723749 J-0.689500
G02 X21.252513 Y4.143759 Z0.000000 I-1.703361 J0.726688
G02 X17.945761 Y4.228303 Z0.000000 I-1.174144 J18.786307
G02 X6.683180 Y5.582907 Z0.000000 I104.359351 J915.172625
G03 X5.957198 Y6.413712 Z0.000000 I-44.946158 J-38.542679
G03 X5.479846 Y6.919543 Z0.000000 I-8.970355 J-7.987172
G01 X3.608555 Y11.063114 Z0.000000
G01 X3.677296 Y11.098130 Z0.000000
G03 X3.073901 Y12.667078 Z0.000000 I-58.347667 J-21.539194
G03 X1.993371 Y14.154511 Z0.000000 I-3.480546 J-1.392218
G03 X1.470300 Y14.404704 Z0.000000 I-0.754226 J-0.904956
G03 X0.758291 Y14.436549 Z0.000000 I-0.459534 J-2.298916
G03 X0.000000 Y14.271041 Z0.000000 I0.391359 J-3.612901
G01 X0.038397 Y2.053680 Z0.000000
G01 X5.178831 Y2.053680 Z0.000000
G01 X5.178831 Y-2.053306 Z0.000000
G01 X0.038759 Y-2.053306 Z0.000000
G01 X0.000000 Y-14.270666 Z0.000000
M05

(End cutting path id: path835)


(2)
G01 F300 X8.113236 Y-18.743361

M03 S6000
G01 X8.113236 Y-29.011551 Z0.000000 F200.000000
G02 X8.615794 Y-28.900144 Z0.000000 I0.551482 J-1.298519
G02 X9.089089 Y-29.034372 Z0.000000 I0.027873 J-0.803266
G03 X10.098454 Y-29.135930 Z0.000000 I0.600408 J0.900612
G03 X12.831670 Y-25.826807 Z0.000000 I-1.713255 J4.198417
G03 X13.092777 Y-23.891586 Z0.000000 I-15.139617 J3.027923
G02 X13.247150 Y-23.877275 Z0.000000 I0.078365 J-0.005560
G01 X13.247150 Y-18.743361 Z0.000000
G01 X13.247150 Y-13.609085 Z0.000000
G02 X13.093290 Y-13.594987 Z0.000000 I-0.075772 J0.019681
G03 X12.831670 Y-11.659915 Z0.000000 I-15.465499 J-1.105704
G03 X10.098288 Y-8.350742 Z0.000000 I-4.446434 J-0.889287
G03 X9.089089 Y-8.451988 Z0.000000 I-0.409092 J-1.002628
G02 X8.615741 Y-8.586477 Z0.000000 I-0.445752 J0.668627
G02 X8.113236 Y-8.475171 Z0.000000 I0.048397 J1.408459
G01 X8.113236 Y-18.743361 Z0.000000
M05

(End cutting path id: path839)


(Start cutting path id: path835)
(Change tool to Cylindrical cutter)

M05
G01 F300 X0.000000 Y-14.270666

M03 S6000
G03 X0.758494 Y-14.436184 Z0.000000 I1.150473 J3.451420 F200.000000
G03 X1.470300 Y-14.404330 Z0.000000 I0.252392 J2.328920
G03 X1.993670 Y-14.154060 Z0.000000 I-0.231155 J1.155776
G03 X3.074263 Y-12.666703 Z0.000000 I-2.399190 J2.879271
G03 X3.677378 Y-11.097927 Z0.000000 I-57.896306 J23.158523
G01 X3.608917 Y-11.063102 Z0.000000
G01 X5.480208 Y-6.919168 Z0.000000
G03 X5.957494 Y-6.413324 Z0.000000 I-8.468444 J8.468444
G03 X6.683180 Y-5.582532 Z0.000000 I-44.080862 J39.236406
G02 X17.946123 Y-4.228177 Z0.000000 I115.723258 J-914.856204
G02 X21.252875 Y-4.143384 Z0.000000 I2.134529 J-18.721736
G02 X22.840671 Y-5.264991 Z0.000000 I-0.115513 J-1.848206
G02 X22.856838 Y-6.683355 Z0.000000 I-1.708343 J-0.728747
G02 X21.196795 Y-9.151191 Z0.000000 I-6.575542 J2.630930
G03 X17.510294 Y-14.168517 Z0.000000 I12.769003 J-13.245077
G03 X16.593453 Y-17.726102 Z0.000000 I7.824957 J-3.913539
G02 X16.440985 Y-21.087510 Z0.000000 I-362.983436 J14.780141
G03 X17.125390 Y-24.776889 Z0.000000 I8.102406 J-0.405120
G03 X20.049903 Y-28.572671 Z0.000000 I9.228879 J4.086010
G03 X23.567415 Y-30.445608 Z0.000000 I6.747803 J8.433325
G03 X25.129119 Y-30.845315 Z0.000000 I4.536202 J14.472781
G03 X26.505912 Y-31.012326 Z0.000000 I1.775258 J8.876291
G03 X27.936055 Y-30.978978 Z0.000000 I0.467867 J10.618386
G03 X30.352626 Y-30.918468 Z0.000000 I0.944322 J10.572054
G03 X31.411309 Y-29.807158 Z0.000000 I-0.171311 J1.223128
G03 X30.903302 Y-28.610370 Z0.000000 I-1.370264 J0.124569
G03 X29.540018 Y-27.771052 Z0.000000 I-4.009822 J-4.986224
G03 X27.601609 Y-26.934608 Z0.000000 I-22.686244 J-49.909736
G03 X25.530110 Y-26.167089 Z0.000000 I-12.561104 J-30.722629
G02 X24.301718 Y-25.328125 Z0.000000 I0.859813 J2.577694
G02 X23.525156 Y-23.894445 Z0.000000 I3.186245 J2.653005
G03 X23.058190 Y-22.421820 Z0.000000 I-86.159763 J-26.510696
G02 X22.723175 Y-20.316680 Z0.000000 I6.446530 J2.105140
G02 X24.213268 Y-16.895390 Z0.000000 I4.672729 J0.000000
G02 X30.609327 Y-11.463730 Z0.000000 I63.195518 J-67.934308
G02 X37.782060 Y-8.660343 Z0.000000 I8.350093 J-10.786754
G03 X43.842024 Y-6.950320 Z0.000000 I-1.449240 J16.728430
G02 X52.531319 Y-3.802688 Z0.000000 I17.838409 J-35.676818
G02 X55.471119 Y-3.608730 Z0.000000 I2.050339 J-8.700655
G03 X56.611997 Y-3.679175 Z0.000000 I1.490374 J14.863459
G02 X57.158577 Y-3.943025 Z0.000000 I-0.017169 J-0.733627
G02 X57.196753 Y-4.340641 Z0.000000 I-0.272131 J-0.226769
G02 X55.738084 Y-6.282002 Z0.000000 I-7.563537 J4.164295
G03 X51.961789 Y-13.298778 Z0.000000 I9.797243 J-9.797243
G02 X51.193884 Y-16.676973 Z0.000000 I-79.064214 J16.195882
G03 X51.517778 Y-19.296439 Z0.000000 I3.558305 J-0.889777
G03 X54.802439 Y-22.290844 Z0.000000 I5.868000 J3.138072
G03 X57.412253 Y-22.918974 Z0.000000 I3.223171 J7.656122
G03 X59.882018 Y-22.691835 Z0.000000 I0.555415 J7.501669
G03 X61.039066 Y-22.427192 Z0.000000 I0.044250 J2.468229
G03 X61.753308 Y-21.386351 Z0.000000 I-0.591561 J1.171422
G03 X60.336913 Y-19.968614 Z0.000000 I-1.288742 J0.128874
G02 X56.273101 Y-19.082556 Z0.000000 I-0.664863 J6.712827
G02 X55.537398 Y-17.046263 Z0.000000 I0.850745 J1.458419
G02 X57.342410 Y-12.163563 Z0.000000 I512.094330 J-186.533414
G02 X62.688983 Y-7.116785 Z0.000000 I7.824546 J-2.933874
G03 X68.703816 Y-4.544375 Z0.000000 I-9.426458 J30.359202
G03 X71.255426 Y-2.705811 Z0.000000 I-6.526103 J11.746985
G03 X72.446034 Y0.000187 Z0.000000 I-2.478697 J2.705525
G03 X71.255404 Y2.705959 Z0.000000 I-3.669823 J-0.000000
G03 X68.703453 Y4.544750 Z0.000000 I-9.074887 J-9.904263
G03 X62.688504 Y7.116922 Z0.000000 I-15.449274 J-27.808693
G02 X57.342047 Y12.163575 Z0.000000 I2.478369 J7.980963
G02 X55.537058 Y17.046510 Z0.000000 I518.957139 J194.608927
G02 X56.272739 Y19.082930 Z0.000000 I1.586439 J0.577977
G02 X60.336241 Y19.968798 Z0.000000 I3.398366 J-5.825770
G03 X61.752946 Y21.386726 Z0.000000 I0.127749 J1.289067
G03 X61.038756 Y22.427288 Z0.000000 I-1.305378 J-0.130573
G03 X59.881656 Y22.691848 Z0.000000 I-1.112835 J-2.204513
G03 X57.411990 Y22.918985 Z0.000000 I-1.914309 J-7.274374
G03 X54.802439 Y22.290857 Z0.000000 I0.613140 J-8.282019
G03 X51.517563 Y19.296839 Z0.000000 I2.581675 J-6.131479
G03 X51.193522 Y16.676986 Z0.000000 I3.234998 J-1.730093
G02 X51.961547 Y13.298905 Z0.000000 I-78.445614 J-19.611403
G03 X55.738084 Y6.282377 Z0.000000 I13.575003 J2.781938
G02 X57.196476 Y4.340966 Z0.000000 I-6.103267 J-6.103267
G02 X57.158260 Y3.943264 Z0.000000 I-0.310430 J-0.170858
G02 X56.611597 Y3.679384 Z0.000000 I-0.563822 J0.469852
G03 X55.470757 Y3.609105 Z0.000000 I0.350394 J-14.982626
G02 X52.531048 Y3.803081 Z0.000000 I-0.889391 J8.893908
G02 X43.842024 Y6.950695 Z0.000000 I9.150127 J38.825917
G03 X37.782050 Y8.660459 Z0.000000 I-7.507558 J-15.015116
G02 X30.608965 Y11.464105 Z0.000000 I1.175958 J13.586609
G02 X24.213093 Y16.895458 Z0.000000 I56.813917 J73.384643
G02 X22.722812 Y20.317055 Z0.000000 I3.182751 J3.421597
G02 X23.057828 Y22.422195 Z0.000000 I6.781546 J0.000000
G03 X23.524794 Y23.894820 Z0.000000 I-85.692798 J27.983322
G02 X24.301382 Y25.328410 Z0.000000 I3.961854 J-1.219032
G02 X25.529748 Y26.167101 Z0.000000 I2.087369 J-1.738316
G03 X27.601280 Y26.934752 Z0.000000 I-10.544707 J31.634122
G03 X29.539656 Y27.771064 Z0.000000 I-20.687061 J50.612272
G03 X30.902858 Y28.610548 Z0.000000 I-2.649638 J5.829203
G03 X31.410946 Y29.807533 Z0.000000 I-0.862463 J1.072420
G03 X30.352232 Y30.918749 Z0.000000 I-1.229869 J-0.111806
G03 X27.935693 Y30.978991 Z0.000000 I-1.471068 J-10.511841
G03 X26.505550 Y31.012338 Z0.000000 I-0.962276 J-10.585039
G03 X25.128757 Y30.845327 Z0.000000 I0.398465 J-9.043301
G03 X23.567041 Y30.445823 Z0.000000 I2.962897 J-14.834585
G03 X20.049540 Y28.573046 Z0.000000 I3.231204 J-10.308657
G03 X17.125042 Y24.777064 Z0.000000 I6.306628 J-7.883285
G03 X16.440623 Y21.087884 Z0.000000 I7.417109 J-3.284103
G02 X16.593176 Y17.726252 Z0.000000 I-364.616140 J-18.230807
G03 X17.509932 Y14.168529 Z0.000000 I8.745164 J0.356482
G03 X21.196255 Y9.151626 Z0.000000 I16.452684 J8.226342
G02 X22.856476 Y6.683367 Z0.000000 I-4.914606 J-5.098190
G02 X22.840356 Y5.265360 Z0.000000 I-1.723749 J-0.689500
G02 X21.252513 Y4.143759 Z0.000000 I-1.703361 J0.726688
G02 X17.945761 Y4.228303 Z0.000000 I-1.174144 J18.786307
G02 X6.683180 Y5.582907 Z0.000000 I104.359351 J915.172625
G03 X5.957198 Y6.413712 Z0.000000 I-44.946158 J-38.542679
G03 X5.479846 Y6.919543 Z0.000000 I-8.970355 J-7.987172
G01 X3.608555 Y11.063114 Z0.000000
G01 X3.677296 Y11.098130 Z0.000000
G03 X3.073901 Y12.667078 Z0.000000 I-58.347667 J-21.539194
G03 X1.993371 Y14.154511 Z0.000000 I-3.480546 J-1.392218
G03 X1.470300 Y14.404704 Z0.000000 I-0.754226 J-0.904956
G03 X0.758291 Y14.436549 Z0.000000 I-0.459534 J-2.298916
G03 X0.000000 Y14.271041 Z0.000000 I0.391359 J-3.612901
G01 X0.038397 Y2.053680 Z0.000000
G01 X5.178831 Y2.053680 Z0.000000
G01 X5.178831 Y-2.053306 Z0.000000
G01 X0.038759 Y-2.053306 Z0.000000
G01 X0.000000 Y-14.270666 Z0.000000
M05

(End cutting path id: path835)

(3)
G01 F300 X8.113236 Y-18.743361

M03 S6000
G01 X8.113236 Y-29.011551 Z0.000000 F200.000000
G02 X8.615794 Y-28.900144 Z0.000000 I0.551482 J-1.298519
G02 X9.089089 Y-29.034372 Z0.000000 I0.027873 J-0.803266
G03 X10.098454 Y-29.135930 Z0.000000 I0.600408 J0.900612
G03 X12.831670 Y-25.826807 Z0.000000 I-1.713255 J4.198417
G03 X13.092777 Y-23.891586 Z0.000000 I-15.139617 J3.027923
G02 X13.247150 Y-23.877275 Z0.000000 I0.078365 J-0.005560
G01 X13.247150 Y-18.743361 Z0.000000
G01 X13.247150 Y-13.609085 Z0.000000
G02 X13.093290 Y-13.594987 Z0.000000 I-0.075772 J0.019681
G03 X12.831670 Y-11.659915 Z0.000000 I-15.465499 J-1.105704
G03 X10.098288 Y-8.350742 Z0.000000 I-4.446434 J-0.889287
G03 X9.089089 Y-8.451988 Z0.000000 I-0.409092 J-1.002628
G02 X8.615741 Y-8.586477 Z0.000000 I-0.445752 J0.668627
G02 X8.113236 Y-8.475171 Z0.000000 I0.048397 J1.408459
G01 X8.113236 Y-18.743361 Z0.000000
M05

(End cutting path id: path839)


(Start cutting path id: path835)
(Change tool to Cylindrical cutter)

M05
G01 F300 X0.000000 Y-14.270666

M03 S6000
G03 X0.758494 Y-14.436184 Z0.000000 I1.150473 J3.451420 F200.000000
G03 X1.470300 Y-14.404330 Z0.000000 I0.252392 J2.328920
G03 X1.993670 Y-14.154060 Z0.000000 I-0.231155 J1.155776
G03 X3.074263 Y-12.666703 Z0.000000 I-2.399190 J2.879271
G03 X3.677378 Y-11.097927 Z0.000000 I-57.896306 J23.158523
G01 X3.608917 Y-11.063102 Z0.000000
G01 X5.480208 Y-6.919168 Z0.000000
G03 X5.957494 Y-6.413324 Z0.000000 I-8.468444 J8.468444
G03 X6.683180 Y-5.582532 Z0.000000 I-44.080862 J39.236406
G02 X17.946123 Y-4.228177 Z0.000000 I115.723258 J-914.856204
G02 X21.252875 Y-4.143384 Z0.000000 I2.134529 J-18.721736
G02 X22.840671 Y-5.264991 Z0.000000 I-0.115513 J-1.848206
G02 X22.856838 Y-6.683355 Z0.000000 I-1.708343 J-0.728747
G02 X21.196795 Y-9.151191 Z0.000000 I-6.575542 J2.630930
G03 X17.510294 Y-14.168517 Z0.000000 I12.769003 J-13.245077
G03 X16.593453 Y-17.726102 Z0.000000 I7.824957 J-3.913539
G02 X16.440985 Y-21.087510 Z0.000000 I-362.983436 J14.780141
G03 X17.125390 Y-24.776889 Z0.000000 I8.102406 J-0.405120
G03 X20.049903 Y-28.572671 Z0.000000 I9.228879 J4.086010
G03 X23.567415 Y-30.445608 Z0.000000 I6.747803 J8.433325
G03 X25.129119 Y-30.845315 Z0.000000 I4.536202 J14.472781
G03 X26.505912 Y-31.012326 Z0.000000 I1.775258 J8.876291
G03 X27.936055 Y-30.978978 Z0.000000 I0.467867 J10.618386
G03 X30.352626 Y-30.918468 Z0.000000 I0.944322 J10.572054
G03 X31.411309 Y-29.807158 Z0.000000 I-0.171311 J1.223128
G03 X30.903302 Y-28.610370 Z0.000000 I-1.370264 J0.124569
G03 X29.540018 Y-27.771052 Z0.000000 I-4.009822 J-4.986224
G03 X27.601609 Y-26.934608 Z0.000000 I-22.686244 J-49.909736
G03 X25.530110 Y-26.167089 Z0.000000 I-12.561104 J-30.722629
G02 X24.301718 Y-25.328125 Z0.000000 I0.859813 J2.577694
G02 X23.525156 Y-23.894445 Z0.000000 I3.186245 J2.653005
G03 X23.058190 Y-22.421820 Z0.000000 I-86.159763 J-26.510696
G02 X22.723175 Y-20.316680 Z0.000000 I6.446530 J2.105140
G02 X24.213268 Y-16.895390 Z0.000000 I4.672729 J0.000000
G02 X30.609327 Y-11.463730 Z0.000000 I63.195518 J-67.934308
G02 X37.782060 Y-8.660343 Z0.000000 I8.350093 J-10.786754
G03 X43.842024 Y-6.950320 Z0.000000 I-1.449240 J16.728430
G02 X52.531319 Y-3.802688 Z0.000000 I17.838409 J-35.676818
G02 X55.471119 Y-3.608730 Z0.000000 I2.050339 J-8.700655
G03 X56.611997 Y-3.679175 Z0.000000 I1.490374 J14.863459
G02 X57.158577 Y-3.943025 Z0.000000 I-0.017169 J-0.733627
G02 X57.196753 Y-4.340641 Z0.000000 I-0.272131 J-0.226769
G02 X55.738084 Y-6.282002 Z0.000000 I-7.563537 J4.164295
G03 X51.961789 Y-13.298778 Z0.000000 I9.797243 J-9.797243
G02 X51.193884 Y-16.676973 Z0.000000 I-79.064214 J16.195882
G03 X51.517778 Y-19.296439 Z0.000000 I3.558305 J-0.889777
G03 X54.802439 Y-22.290844 Z0.000000 I5.868000 J3.138072
G03 X57.412253 Y-22.918974 Z0.000000 I3.223171 J7.656122
G03 X59.882018 Y-22.691835 Z0.000000 I0.555415 J7.501669
G03 X61.039066 Y-22.427192 Z0.000000 I0.044250 J2.468229
G03 X61.753308 Y-21.386351 Z0.000000 I-0.591561 J1.171422
G03 X60.336913 Y-19.968614 Z0.000000 I-1.288742 J0.128874
G02 X56.273101 Y-19.082556 Z0.000000 I-0.664863 J6.712827
G02 X55.537398 Y-17.046263 Z0.000000 I0.850745 J1.458419
G02 X57.342410 Y-12.163563 Z0.000000 I512.094330 J-186.533414
G02 X62.688983 Y-7.116785 Z0.000000 I7.824546 J-2.933874
G03 X68.703816 Y-4.544375 Z0.000000 I-9.426458 J30.359202
G03 X71.255426 Y-2.705811 Z0.000000 I-6.526103 J11.746985
G03 X72.446034 Y0.000187 Z0.000000 I-2.478697 J2.705525
G03 X71.255404 Y2.705959 Z0.000000 I-3.669823 J-0.000000
G03 X68.703453 Y4.544750 Z0.000000 I-9.074887 J-9.904263
G03 X62.688504 Y7.116922 Z0.000000 I-15.449274 J-27.808693
G02 X57.342047 Y12.163575 Z0.000000 I2.478369 J7.980963
G02 X55.537058 Y17.046510 Z0.000000 I518.957139 J194.608927
G02 X56.272739 Y19.082930 Z0.000000 I1.586439 J0.577977
G02 X60.336241 Y19.968798 Z0.000000 I3.398366 J-5.825770
G03 X61.752946 Y21.386726 Z0.000000 I0.127749 J1.289067
G03 X61.038756 Y22.427288 Z0.000000 I-1.305378 J-0.130573
G03 X59.881656 Y22.691848 Z0.000000 I-1.112835 J-2.204513
G03 X57.411990 Y22.918985 Z0.000000 I-1.914309 J-7.274374
G03 X54.802439 Y22.290857 Z0.000000 I0.613140 J-8.282019
G03 X51.517563 Y19.296839 Z0.000000 I2.581675 J-6.131479
G03 X51.193522 Y16.676986 Z0.000000 I3.234998 J-1.730093
G02 X51.961547 Y13.298905 Z0.000000 I-78.445614 J-19.611403
G03 X55.738084 Y6.282377 Z0.000000 I13.575003 J2.781938
G02 X57.196476 Y4.340966 Z0.000000 I-6.103267 J-6.103267
G02 X57.158260 Y3.943264 Z0.000000 I-0.310430 J-0.170858
G02 X56.611597 Y3.679384 Z0.000000 I-0.563822 J0.469852
G03 X55.470757 Y3.609105 Z0.000000 I0.350394 J-14.982626
G02 X52.531048 Y3.803081 Z0.000000 I-0.889391 J8.893908
G02 X43.842024 Y6.950695 Z0.000000 I9.150127 J38.825917
G03 X37.782050 Y8.660459 Z0.000000 I-7.507558 J-15.015116
G02 X30.608965 Y11.464105 Z0.000000 I1.175958 J13.586609
G02 X24.213093 Y16.895458 Z0.000000 I56.813917 J73.384643
G02 X22.722812 Y20.317055 Z0.000000 I3.182751 J3.421597
G02 X23.057828 Y22.422195 Z0.000000 I6.781546 J0.000000
G03 X23.524794 Y23.894820 Z0.000000 I-85.692798 J27.983322
G02 X24.301382 Y25.328410 Z0.000000 I3.961854 J-1.219032
G02 X25.529748 Y26.167101 Z0.000000 I2.087369 J-1.738316
G03 X27.601280 Y26.934752 Z0.000000 I-10.544707 J31.634122
G03 X29.539656 Y27.771064 Z0.000000 I-20.687061 J50.612272
G03 X30.902858 Y28.610548 Z0.000000 I-2.649638 J5.829203
G03 X31.410946 Y29.807533 Z0.000000 I-0.862463 J1.072420
G03 X30.352232 Y30.918749 Z0.000000 I-1.229869 J-0.111806
G03 X27.935693 Y30.978991 Z0.000000 I-1.471068 J-10.511841
G03 X26.505550 Y31.012338 Z0.000000 I-0.962276 J-10.585039
G03 X25.128757 Y30.845327 Z0.000000 I0.398465 J-9.043301
G03 X23.567041 Y30.445823 Z0.000000 I2.962897 J-14.834585
G03 X20.049540 Y28.573046 Z0.000000 I3.231204 J-10.308657
G03 X17.125042 Y24.777064 Z0.000000 I6.306628 J-7.883285
G03 X16.440623 Y21.087884 Z0.000000 I7.417109 J-3.284103
G02 X16.593176 Y17.726252 Z0.000000 I-364.616140 J-18.230807
G03 X17.509932 Y14.168529 Z0.000000 I8.745164 J0.356482
G03 X21.196255 Y9.151626 Z0.000000 I16.452684 J8.226342
G02 X22.856476 Y6.683367 Z0.000000 I-4.914606 J-5.098190
G02 X22.840356 Y5.265360 Z0.000000 I-1.723749 J-0.689500
G02 X21.252513 Y4.143759 Z0.000000 I-1.703361 J0.726688
G02 X17.945761 Y4.228303 Z0.000000 I-1.174144 J18.786307
G02 X6.683180 Y5.582907 Z0.000000 I104.359351 J915.172625
G03 X5.957198 Y6.413712 Z0.000000 I-44.946158 J-38.542679
G03 X5.479846 Y6.919543 Z0.000000 I-8.970355 J-7.987172
G01 X3.608555 Y11.063114 Z0.000000
G01 X3.677296 Y11.098130 Z0.000000
G03 X3.073901 Y12.667078 Z0.000000 I-58.347667 J-21.539194
G03 X1.993371 Y14.154511 Z0.000000 I-3.480546 J-1.392218
G03 X1.470300 Y14.404704 Z0.000000 I-0.754226 J-0.904956
G03 X0.758291 Y14.436549 Z0.000000 I-0.459534 J-2.298916
G03 X0.000000 Y14.271041 Z0.000000 I0.391359 J-3.612901
G01 X0.038397 Y2.053680 Z0.000000
G01 X5.178831 Y2.053680 Z0.000000
G01 X5.178831 Y-2.053306 Z0.000000
G01 X0.038759 Y-2.053306 Z0.000000
G01 X0.000000 Y-14.270666 Z0.000000
M05

(End cutting path id: path835)

(Footer)
M5
G01 F300 X0.0000 Y0.0000
M2
(Using default footer. To add your own footer create file "footer" in the output dir.)
(end)
%