%
(Header)
(Generated by gcodetools from Inkscape.)
(Using default header. To add your own header create file "header" in the output dir.)
M05
(Header end.)
G21 (All units in mm)
G61
M08
(Start cutting path id: path867)
(Change tool to Cylindrical cutter)

M05
G01 F360 X20.391635 Y5.840651

M03 s10
G03 X20.793700 Y5.657406 Z0.000000 I1.359314 J2.449794 F300.000000
G03 X21.658227 Y5.505130 Z0.000000 I0.864527 J2.377995
G03 X22.447201 Y5.786007 Z0.000000 I0.000000 J1.248540
G03 X22.656402 Y6.226500 Z0.000000 I-0.359152 J0.440493
G03 X22.314688 Y6.814444 Z0.000000 I-0.676657 J-0.000000
G03 X21.557571 Y7.014975 Z0.000000 I-0.757117 J-1.329009
G01 X21.037513 Y7.014975 Z0.000000
G01 X21.037513 Y7.929619 Z0.000000
G01 X21.540795 Y7.929619 Z0.000000
G03 X22.176898 Y8.060307 Z0.000000 I-0.000000 J1.613408
G03 X22.505417 Y8.558721 Z0.000000 I-0.213825 J0.498413
G03 X22.337505 Y8.906672 Z0.000000 I-0.444472 J-0.000000
G03 X21.700167 Y9.129106 Z0.000000 I-0.637338 J-0.801861
G03 X20.960954 Y8.994676 Z0.000000 I-0.000000 J-2.099633
G03 X20.567784 Y8.801973 Z0.000000 I0.804644 J-2.139150
G01 X20.307755 Y9.724656 Z0.000000
G02 X20.870314 Y9.978825 Z0.000000 I1.139997 J-1.773540
G02 X21.993748 Y10.135669 Z0.000000 I1.123434 J-3.945004
G02 X23.403003 Y9.622477 Z0.000000 I-0.000000 J-2.191544
G02 X23.797173 Y8.776809 Z0.000000 I-0.710079 J-0.845668
G02 X23.556900 Y8.057555 Z0.000000 I-1.196673 J0.000000
G02 X22.799348 Y7.509868 Z0.000000 I-1.263998 J0.950581
G01 X22.799348 Y7.493442 Z0.000000
G02 X23.614355 Y7.061400 Z0.000000 I-0.267228 J-1.488840
G02 X23.981710 Y6.159396 Z0.000000 I-0.923714 J-0.902004
G02 X23.461366 Y5.089680 Z0.000000 I-1.359726 J0.000000
G02 X21.750495 Y4.498567 Z0.000000 I-1.710871 J2.180349
G02 X20.663905 Y4.646364 Z0.000000 I0.000000 J4.068179
G02 X20.131607 Y4.876029 Z0.000000 I0.567092 J2.046048
G01 X20.391635 Y5.840651 Z0.000000
M05

(End cutting path id: path867)


(Start cutting path id: path863)
(Change tool to Cylindrical cutter)

M05
G01 F360 X15.400518 Y4.591117

M03 s10
G01 X15.400518 Y5.362815 Z0.000000 F300.000000
G01 X16.096724 Y5.991917 Z0.000000
G03 X17.601986 Y7.553138 Z0.000000 I-9.840437 J10.993989
G03 X17.883023 Y8.315050 Z0.000000 I-0.935681 J0.777921
G03 X17.684444 Y8.814350 Z0.000000 I-0.726999 J-0.000000
G03 X16.993893 Y9.111912 Z0.000000 I-0.690551 J-0.652497
G03 X16.298635 Y8.951601 Z0.000000 I0.000000 J-1.587794
G03 X15.828307 Y8.667347 Z0.000000 I1.332861 J-2.736592
G01 X15.467622 Y9.572904 Z0.000000
G02 X16.149642 Y9.945351 Z0.000000 I1.514298 J-1.962285
G02 X17.245883 Y10.134902 Z0.000000 I1.096241 J-3.075210
G02 X18.682989 Y9.553321 Z0.000000 I-0.000000 J-2.066358
G02 X19.158003 Y8.432482 Z0.000000 I-1.084852 J-1.120839
G02 X18.754832 Y7.215554 Z0.000000 I-2.038168 J-0.000000
G02 X17.706875 Y6.075447 Z0.000000 I-6.013921 J4.476162
G01 X17.203943 Y5.656396 Z0.000000
G01 X17.203943 Y5.639270 Z0.000000
G01 X19.267047 Y5.639270 Z0.000000
G01 X19.267047 Y4.591117 Z0.000000
G01 X15.400518 Y4.591117 Z0.000000
M05

(End cutting path id: path863)


(Start cutting path id: path859)
(Change tool to Cylindrical cutter)

M05
G01 F360 X11.935878 Y7.308310

M03 s10
G03 X12.274944 Y5.751920 Z0.000000 I3.741634 J0.000000 F300.000000
G03 X12.724353 Y5.463294 Z0.000000 I0.449409 J0.205567
G03 X13.173364 Y5.762122 Z0.000000 I-0.000000 J0.486751
G03 X13.487313 Y7.325436 Z0.000000 I-3.735292 J1.563313
G03 X13.182411 Y8.858743 Z0.000000 I-4.007836 J0.000000
G03 X12.715965 Y9.170452 Z0.000000 I-0.466446 J-0.193146
G03 X12.287301 Y8.897074 Z0.000000 I-0.000000 J-0.472767
G03 X11.935878 Y7.308310 Z0.000000 I3.415650 J-1.588764
G01 X11.935878 Y7.308310 Z0.000000
M05

(End cutting path id: path859)


(Start cutting path id: path859)
(Change tool to Cylindrical cutter)

M05
G01 F360 X14.762293 Y7.342212

M03 s10
G02 X14.141270 Y5.274854 Z0.000000 I-3.751584 J0.000000 F300.000000
G02 X12.699189 Y4.499021 Z0.000000 I-1.442082 J0.952321
G02 X11.220163 Y5.331110 Z0.000000 I0.000000 J1.730516
G02 X10.660899 Y7.308310 Z0.000000 I3.289385 J1.998121
G02 X11.245035 Y9.317554 Z0.000000 I3.747650 J0.000000
G02 X12.732741 Y10.135074 Z0.000000 I1.487706 J-0.944887
G02 X14.242186 Y9.267668 Z0.000000 I-0.000000 J-1.747058
G02 X14.762293 Y7.342212 Z0.000000 I-3.304002 J-1.925456
G01 X14.762293 Y7.342212 Z0.000000
M05

(End cutting path id: path859)


(Start cutting path id: path855)
(Change tool to Cylindrical cutter)

M05
G01 F360 X6.089601 Y4.591117

M03 s10
G01 X6.089601 Y5.362815 Z0.000000 F300.000000
G01 X6.785807 Y5.991917 Z0.000000
G03 X8.291069 Y7.553138 Z0.000000 I-9.840437 J10.993989
G03 X8.572107 Y8.315050 Z0.000000 I-0.935681 J0.777921
G03 X8.373429 Y8.814562 Z0.000000 I-0.727271 J0.000000
G03 X7.683325 Y9.111912 Z0.000000 I-0.690104 J-0.652136
G03 X6.987651 Y8.951534 Z0.000000 I-0.000000 J-1.589009
G03 X6.517390 Y8.667347 Z0.000000 I1.331824 J-2.735024
G01 X6.156705 Y9.572904 Z0.000000
G02 X6.838590 Y9.945326 Z0.000000 I1.514568 J-1.962635
G02 X7.934617 Y10.134902 Z0.000000 I1.096027 J-3.073539
G02 X9.371954 Y9.553357 Z0.000000 I-0.000000 J-2.067023
G02 X9.847086 Y8.432482 Z0.000000 I-1.084550 J-1.120875
G02 X9.443915 Y7.215554 Z0.000000 I-2.038168 J0.000000
G02 X8.395958 Y6.075447 Z0.000000 I-6.013921 J4.476162
G01 X7.893026 Y5.656396 Z0.000000
G01 X7.893026 Y5.639270 Z0.000000
G01 X9.956130 Y5.639270 Z0.000000
G01 X9.956130 Y4.591117 Z0.000000
G01 X6.089601 Y4.591117 Z0.000000
M05

(End cutting path id: path855)


(Start cutting path id: path851)
(Change tool to Cylindrical cutter)

M05
G01 F360 X26.776877 Y13.156966

M03 s10
G02 X26.183327 Y12.913866 Z0.000000 I-1.193150 J2.067035 F300.000000
G02 X24.528538 Y12.702614 Z0.000000 I-1.654789 J6.375566
G02 X21.177436 Y14.336632 Z0.000000 I0.000000 J4.253289
G02 X19.914775 Y18.002448 Z0.000000 I4.690053 J3.665816
G02 X21.626415 Y22.274649 Z0.000000 I6.187463 J-0.000000
G02 X24.724608 Y23.600405 Z0.000000 I3.098193 J-2.957245
G02 X26.302045 Y23.396401 Z0.000000 I-0.000000 J-6.200667
G02 X26.894659 Y23.129977 Z0.000000 I-0.502345 J-1.909677
G01 X26.476307 Y21.248263 Z0.000000
G03 X25.862856 Y21.492318 Z0.000000 I-1.511614 J-2.906552
G03 X24.803245 Y21.640404 Z0.000000 I-1.059611 J-3.716935
G03 X23.058135 Y20.867455 Z0.000000 I-0.000000 J-2.356469
G03 X22.006538 Y18.143646 Z0.000000 I3.001759 J-2.723809
G03 X22.893804 Y15.616619 Z0.000000 I4.042255 J0.000000
G03 X24.816177 Y14.693372 Z0.000000 I1.922373 J1.539748
G03 X25.801692 Y14.797021 Z0.000000 I0.000000 J4.737042
G03 X26.489238 Y15.038679 Z0.000000 I-0.591966 J2.783125
G01 X26.776877 Y13.156966 Z0.000000
M05

(End cutting path id: path851)


(Start cutting path id: path847)
(Change tool to Cylindrical cutter)

M05
G01 F360 X11.300345 Y12.875058

M03 s10
G01 X11.300345 Y23.443619 Z0.000000 F300.000000
G01 X13.626974 Y23.443619 Z0.000000
G01 X15.456961 Y19.570449 Z0.000000
G02 X16.217729 Y17.800696 Z0.000000 I-26.322343 J-12.363650
G02 X16.894458 Y15.948220 Z0.000000 I-40.610233 J-15.885200
G01 X16.921020 Y15.948220 Z0.000000
G02 X16.801264 Y18.010694 Z0.000000 I39.293270 J3.316261
G02 X16.763745 Y20.370107 Z0.000000 I74.168538 J2.359413
G01 X16.763745 Y23.443619 Z0.000000
G01 X18.594082 Y23.443619 Z0.000000
G01 X18.594082 Y12.875058 Z0.000000
G01 X16.502318 Y12.875058 Z0.000000
G01 X14.620255 Y16.951987 Z0.000000
G02 X13.824026 Y18.751302 Z0.000000 I52.123925 J24.141607
G02 X13.091188 Y20.683959 Z0.000000 I25.702676 J10.851380
G01 X13.038763 Y20.683959 Z0.000000
G02 X13.106490 Y18.601570 Z0.000000 I-75.601606 J-3.501114
G02 X13.130333 Y16.057964 Z0.000000 I-135.666107 J-2.543607
G01 X13.130333 Y12.875058 Z0.000000
G01 X11.300345 Y12.875058 Z0.000000
M05

(End cutting path id: path847)


(Start cutting path id: path843)
(Change tool to Cylindrical cutter)

M05
G01 F360 X9.979476 Y13.156966

M03 s10
G02 X9.385874 Y12.913836 Z0.000000 I-1.193372 J2.067419 F300.000000
G02 X7.731486 Y12.702614 Z0.000000 I-1.654388 J6.373358
G02 X4.380042 Y14.336750 Z0.000000 I0.000000 J4.253801
G02 X3.117373 Y18.002448 Z0.000000 I4.689675 J3.665698
G02 X4.829180 Y22.274684 Z0.000000 I6.187114 J0.000000
G02 X7.927556 Y23.600405 Z0.000000 I3.098376 J-2.957784
G02 X9.504696 Y23.396400 Z0.000000 I0.000000 J-6.198354
G02 X10.096909 Y23.129977 Z0.000000 I-0.501540 J-1.906241
G01 X9.678905 Y21.248263 Z0.000000
G03 X9.065147 Y21.492331 Z0.000000 I-1.514367 J-2.914441
G03 X8.005844 Y21.640404 Z0.000000 I-1.059303 J-3.715064
G03 X6.260561 Y20.867488 Z0.000000 I0.000000 J-2.356927
G03 X5.208787 Y18.143646 Z0.000000 I3.001163 J-2.723842
G03 X6.096371 Y15.616555 Z0.000000 I4.041306 J0.000000
G03 X8.019125 Y14.693372 Z0.000000 I1.922754 J1.540711
G03 X9.003891 Y14.796983 Z0.000000 I-0.000000 J4.731623
G03 X9.691837 Y15.038679 Z0.000000 I-0.593495 J2.789190
G01 X9.979476 Y13.156966 Z0.000000
M05

(End cutting path id: path843)


(Start cutting path id: path871)
(Change tool to Cylindrical cutter)

M05
G01 F360 X16.492183 Y27.115690

M03 s100
G02 X16.056921 Y26.064874 Z0.000000 I-1.486078 J0.000000 F130.000000
G02 X15.006105 Y25.629611 Z0.000000 I-1.050816 J1.050816
G02 X13.955131 Y26.065032 Z0.000000 I-0.000000 J1.486078
G02 X13.520027 Y27.115690 Z0.000000 I1.050974 J1.050658
G02 X13.955131 Y28.166347 Z0.000000 I1.486078 J0.000000
G02 X15.006105 Y28.601768 Z0.000000 I1.050974 J-1.050658
G02 X16.056921 Y28.166506 Z0.000000 I-0.000000 J-1.486078
G02 X16.492183 Y27.115690 Z0.000000 I-1.050816 J-1.050816
G01 X16.492183 Y27.115690 Z0.000000
M05

(End cutting path id: path871)


(Start cutting path id: path839)
(Change tool to Cylindrical cutter)

M05
G01 F360 X25.903792 Y0.145218

M03 s100
G01 X4.108210 Y0.145218 Z0.000000 F130.000000
G02 X1.305793 Y1.306109 Z0.000000 I-0.000000 J3.962992
G02 X0.145218 Y4.108210 Z0.000000 I2.802417 J2.802100
G01 X0.145218 Y25.903792 Z0.000000
G02 X1.305793 Y28.705892 Z0.000000 I3.962992 J0.000000
G02 X4.108210 Y29.866784 Z0.000000 I2.802417 J-2.802100
G01 X25.903792 Y29.866784 Z0.000000
G02 X28.706050 Y28.706050 Z0.000000 I0.000000 J-3.962992
G02 X29.866784 Y25.903792 Z0.000000 I-2.802258 J-2.802258
G01 X29.866784 Y4.108210 Z0.000000
G02 X28.706050 Y1.305951 Z0.000000 I-3.962992 J-0.000000
G02 X25.903792 Y0.145218 Z0.000000 I-2.802258 J2.802258
G01 X25.903792 Y0.145218 Z0.000000
M05

(End cutting path id: path839)


(Footer)
M5
G01 F360 X0.0000 Y0.0000
M2
(Using default footer. To add your own footer create file "footer" in the output dir.)
(end)
%